Papirus/48x48/places/folder-mega.svg

<?xml version="1.0" encoding="UTF-8" standalone="no"?>
<svg xmlns="http://www.w3.org/2000/svg" height="48" width="48" version="1">
 <path d="m 3.99975,36 0,-28 c 0,-1.108 0.8988,-2.1224 2,-2 l 13,0 c 2,0 2,1.601856 2,4 l 21.103,0 c 0,0 1.8975,0 1.8975,2 l 0,24 c 0,1.108 -0.892,2 -2,2 l -36,0 c -1.108,0 -2,-0.892 -2,-2 z" style="fill:#4877b1;fill-opacity:1"/>
 <path style="opacity:0.2;fill:#000000;fill-opacity:1" d="m 43.99975,39.0003 0,-22 c 0,-1.108 -0.89878,-2.1224 -2,-2 l -16,0 -4,0 -16,0 c -2,0 -2,1.9167 -2,1.9167 l 0,22.083 c 0,1.108 0.892,2 2,2 l 36,0 c 1.108,0 2,-0.892 2,-2 z"/>
 <rect style="opacity:1;fill:#dcdcdc;fill-opacity:1;" width="36" height="16" x="6" y="13" ry="2" rx="2"/>
 <path d="m 43.99975,40 0,-22 c 0,-1.108 -0.89878,-2.1224 -2,-2 l -16,0 -4,0 -16,0 c -2,0 -2,1.9167 -2,1.9167 l 0,22.083 c 0,1.108 0.892,2 2,2 l 36,0 c 1.108,0 2,-0.892 2,-2 z" style="fill:#5294e2;fill-opacity:1"/>
 <path d="m 3.99975,39.994 0,1.006 c 0,1.108 0.892,2 2,2 l 36,0 c 1.108,0 2,-0.892 2,-2 l 0,-1.0059 c 0,1.108 -0.892,2 -2,2 l -36,0 c -1.108,0 -2,-0.892 -2,-2 z" style="opacity:0.2"/>
 <path style="opacity:0.1;fill:#ffffff;fill-opacity:1" d="m 5.99975,6 c -1.1012,-0.1224 -2,0.892 -2,2 l 0,1 c 0,-1.108 0.8988,-2.1224 2,-2 l 13,0 c 2,0 2,1.601856 2,4 l 21.10352,0 c 0,0 1.89648,0 1.89648,2 l 0,-1 c 0,-2 -1.89648,-2 -1.89648,-2 l -21.10352,0 c 0,-2.398144 0,-4 -2,-4 l -13,0 z"/>
 <path style="opacity:0.65" d="m 24,22 a 7,7 0 0 0 -7,7 7,7 0 0 0 7,7 7,7 0 0 0 7,-7 7,7 0 0 0 -7,-7 z m -4,3 2,0 0,0.0059 0.002,-0.0019 1.998,2.9961 2,-3 2,0 0,8 -2,0 0,-4 -2,2 -2,-2 0,4 -2,0 0,-8 z"/>
</svg>

<svg xmlns="http://www.w3.org/2000/svg" width="48" height="48" version="1">
 <rect style="opacity:0.2" width="40" height="26" x="4" y="17" rx="2" ry="2"/>
 <path style="fill:#4877b1" d="M 4,34 C 4,35.108 4.892,36 6,36 H 42 C 43.108,36 44,35.108 44,34 V 12 C 44,10.892 43.108,10 42,10 H 22 V 8 C 22,6.892 21.108,6 20,6 H 6 C 4.892,6 4,6.892 4,8"/>
 <rect style="opacity:0.2" width="40" height="26" x="4" y="15" rx="2" ry="2"/>
 <rect style="fill:#dcdcdc" width="36" height="16" x="6" y="13" rx="2" ry="2"/>
 <rect style="fill:#5294e2" width="40" height="26" x="4" y="16" rx="2" ry="2"/>
 <path style="opacity:0.1;fill:#ffffff" d="M 6,6 C 4.892,6 4,6.892 4,8 V 9 C 4,7.892 4.892,7 6,7 H 20 C 21.108,7 22,7.892 22,9 V 8 C 22,6.892 21.108,6 20,6 Z M 22,10 V 11 H 42 C 43.108,11 44,11.892 44,13 V 12 C 44,10.892 43.108,10 42,10 Z"/>
 <path style="opacity:0.65" d="M 24,22 C 20.134,22 17,25.134 17,29 17,32.866 20.134,36 24,36 27.866,36 31,32.866 31,29 31,25.134 27.866,22 24,22 Z M 20,25 H 22 V 25 25 L 24,28 26,25 H 28 V 33 H 26 V 29 L 24,31 22,29 V 33 H 20 Z"/>
</svg>
